assets/Joystick/Flat/joystick_flat.svg

<svg width="32" height="32" viewBox="0 0 32 32" fill="none" xmlns="http://www.w3.org/2000/svg">
<path fill-rule="evenodd" clip-rule="evenodd" d="M11.0288 18.7533C11.5295 16.6032 13.5621 15 15.9953 15C18.4284 15 20.4611 16.6032 20.9718 18.7533C21.1019 19.3285 20.7715 19.9132 20.2008 20.1583C17.5273 21.2806 14.4733 21.2806 11.7998 20.1583C11.2191 19.9132 10.8986 19.3285 11.0288 18.7533ZM4 23.0493V19.0001C4.00002 19.3563 4.1858 19.7125 4.55732 19.8855L15.0912 24.8015L15.0912 24.8015C15.6636 25.0662 16.3364 25.0662 16.9088 24.8015L27.4427 19.8855C27.8142 19.7125 28 19.3563 28 19V23.0493C28 24.2312 27.2968 25.2968 26.1817 25.7908L17.311 29.7239C16.4772 30.092 15.5228 30.092 14.689 29.7239L5.81833 25.7908C4.71327 25.2968 4 24.2312 4 23.0493Z" fill="#533566"/>
<path d="M4.55732 18.1145L15.0912 13.1985C15.6636 12.9338 16.3264 12.9338 16.9088 13.1985L27.4427 18.1145C28.1858 18.4606 28.1858 19.5395 27.4427 19.8855L16.9088 24.8015C16.3364 25.0662 15.6636 25.0662 15.0912 24.8015L4.55732 19.8855C3.81423 19.5395 3.81423 18.4606 4.55732 18.1145ZM11.0288 18.7533C10.8986 19.3285 11.2191 19.9132 11.7998 20.1583C14.4733 21.2806 17.5273 21.2806 20.2008 20.1583C20.7715 19.9132 21.1019 19.3285 20.9718 18.7533C20.4611 16.6032 18.4284 15 15.9953 15C13.5621 15 11.5295 16.6032 11.0288 18.7533Z" fill="#635994"/>
<path d="M4.13259 18.5C4.22542 18.6602 4.367 18.7969 4.55732 18.8855L15.0912 23.8015C15.6636 24.0661 16.3364 24.0661 16.9088 23.8015L27.4427 18.8855C27.633 18.7969 27.7746 18.6602 27.8674 18.5C28.137 18.9651 27.9954 19.6281 27.4427 19.8855L16.9088 24.8015C16.3364 25.0661 15.6636 25.0661 15.0912 24.8015L4.55732 19.8855C4.00455 19.6281 3.86297 18.9651 4.13259 18.5Z" fill="#6B438B"/>
<path d="M16 6C16.5523 6 17 6.44772 17 7V15.25C17 15.8023 16.5523 16 16 16C15.4477 16 15 15.8023 15 15.25V7C15 6.44772 15.4477 6 16 6Z" fill="#D3D3D3"/>
<path d="M20.68 6.67999C20.68 9.26469 18.5847 11.36 16 11.36C13.4153 11.36 11.32 9.26469 11.32 6.67999C11.32 4.0953 13.4153 2 16 2C18.5847 2 20.68 4.0953 20.68 6.67999ZM6.45498 18.76C6.59498 18.12 7.17498 17.63 7.86498 17.63C8.55498 17.63 9.13498 18.12 9.28498 18.76C9.32498 18.93 9.22498 19.11 9.06498 19.18C8.30498 19.52 7.43498 19.52 6.67498 19.18C6.50498 19.11 6.41498 18.93 6.45498 18.76Z" fill="#F8312F"/>
</svg>

<svg xmlns="http://www.w3.org/2000/svg" width="32" height="32" fill="none"><path fill="#533566" fill-rule="evenodd" d="M11.029 18.753c.5-2.15 2.533-3.753 4.966-3.753 2.433 0 4.466 1.603 4.977 3.753.13.575-.2 1.16-.771 1.405a10.902 10.902 0 0 1-8.401 0c-.58-.245-.901-.83-.771-1.405ZM4 23.05V19c0 .356.186.712.557.886l10.534 4.916a2.18 2.18 0 0 0 1.818 0l10.534-4.916A.962.962 0 0 0 28 19v4.05c0 1.181-.703 2.247-1.818 2.74l-8.871 3.934a3.25 3.25 0 0 1-2.622 0l-8.87-3.933C4.712 25.297 4 24.23 4 23.049Z" clip-rule="evenodd"/><path fill="#635994" d="m4.557 18.114 10.534-4.916a2.18 2.18 0 0 1 1.818 0l10.534 4.916c.743.347.743 1.425 0 1.771l-10.534 4.916a2.18 2.18 0 0 1-1.818 0L4.557 19.887c-.743-.346-.743-1.425 0-1.771Zm6.472.64c-.13.574.19 1.16.77 1.404a10.902 10.902 0 0 0 8.402 0c.57-.245.9-.83.77-1.405-.51-2.15-2.543-3.753-4.976-3.753s-4.465 1.603-4.966 3.753Z"/><path fill="#6B438B" d="M4.133 18.5c.092.16.234.297.424.386l10.534 4.916a2.18 2.18 0 0 0 1.818 0l10.534-4.916a.946.946 0 0 0 .424-.386c.27.465.128 1.128-.424 1.386l-10.534 4.916a2.18 2.18 0 0 1-1.818 0L4.557 19.886c-.552-.258-.694-.92-.424-1.386Z"/><path fill="#D3D3D3" d="M16 6a1 1 0 0 1 1 1v8.25c0 .552-.448.75-1 .75s-1-.198-1-.75V7a1 1 0 0 1 1-1Z"/><path fill="#F8312F" d="M20.68 6.68a4.68 4.68 0 1 1-9.36 0 4.68 4.68 0 0 1 9.36 0ZM6.455 18.76c.14-.64.72-1.13 1.41-1.13s1.27.49 1.42 1.13c.04.17-.06.35-.22.42-.76.34-1.63.34-2.39 0a.366.366 0 0 1-.22-.42Z"/></svg>
